X:18415
T:Waltz in F
M:3/4
L:1/4
Q:80
K:F
A2/B/2
|c>F A/2c/2 | dcB | AFF/2A/2 | G/2E/2CC |
D2 F/2/E/2 | EFG | A2 A/2F/2 | G2 A/2B/2|
c>F A/2c/2 |dcB| AF F/2A/2 | G/2E/2 CC |
D2 F/2C/2 |EFG|F4:|
A/2B/2|
c2 d/2e/2 | fed |c GB | BAG |
F2 E/2/F/2 | F2 D/2E/2 |AGF | G2 A/2B/2 | c2 d/2e/2 |1
f2 e/2f/2 | eag | f2 a/2g/2 | fdB | A/2B/2 cA | G>B A/2G/2 | F4:|2
f2 e/2f/2 | efg | a2 a/2g/2 | fdB | A/2B/2 cA | G>B A/2G/2 | F4


